images/youtube.svg

<svg width="17" height="11" viewBox="0 0 17 11" fill="none" xmlns="http://www.w3.org/2000/svg">
<path fill-rule="evenodd" clip-rule="evenodd" d="M14.4786 0.343069C15.1285 0.524413 15.6404 1.05589 15.8148 1.72945C16.1386 2.95882 16.1235 5.52198 16.1235 5.52198C16.1235 5.52198 16.1212 8.07101 15.8072 9.2996C15.6305 9.97238 15.1164 10.5031 14.4672 10.6836C13.2796 11.0055 8.52857 11 8.52857 11C8.52857 11 3.79038 10.9945 2.59067 10.6569C1.94 10.4756 1.42812 9.94411 1.25369 9.27133C0.94277 8.05452 0.945802 5.49215 0.945802 5.49215C0.945802 5.49215 0.948836 2.94234 1.26204 1.71296C1.43797 1.04018 1.96427 0.496937 2.60129 0.317162C3.78962 -0.00548932 8.53994 5.96305e-06 8.53994 5.96305e-06C8.53994 5.96305e-06 13.291 0.00550127 14.4786 0.343069ZM7.024 3.14409L7.02021 7.85434L10.9727 5.50314L7.024 3.14409Z" fill="white"/>
</svg>

<svg xmlns="http://www.w3.org/2000/svg" width="17" height="11" fill="none" viewBox="0 0 17 11"><path fill="#fff" fill-rule="evenodd" d="M14.479.343c.65.181 1.161.713 1.336 1.386.324 1.23.309 3.793.309 3.793s-.003 2.549-.317 3.778a1.94 1.94 0 0 1-1.34 1.384C13.28 11.006 8.53 11 8.53 11s-4.739-.005-5.938-.343A1.94 1.94 0 0 1 1.254 9.27C.943 8.055.946 5.492.946 5.492s.003-2.55.316-3.779c.176-.673.702-1.216 1.34-1.396C3.79-.005 8.54 0 8.54 0s4.751.006 5.939.343M7.024 3.144l-.004 4.71 3.953-2.35z" clip-rule="evenodd"/></svg>
